public/avatar/hat/275.svg

<svg xmlns:xlink="http://www.w3.org/1999/xlink" height="92.9" width="100.7" xmlns="http://www.w3.org/2000/svg"><use height="24.55" transform="translate(21.65 43.25)" width="37.3" xlink:href="#a"/><defs><g id="a" fill-rule="evenodd"><path d="M18.05.65q0 1.3-.4 2l2 .05-1.3 1.6q.2.7 1.95.8l-1.95.95L19.6 7.8l-2-.1q.85 1.8.65 1.95-.2.15-2-.8.25 1.8-.15 2.3L14.55 9.4q-.7 1.55-1.6 1.95l-.15-2.2-1.8 1.3.25-2.15-1.85.25.8-1.75-1.7-.35L9.85 5.1 8.7 3.9q1.35.05 1.55-.55.25-.55-.85-1.45l1.95.05q0-1.3-.35-1.9.95 0 1.9 1l.5-1.8.35.8q.4.8.9.8l1.3-1 .4 1.6q.45.5 1.7-.8" fill="#1a171b" transform="translate(17 6.5)"/><path d="m16.75 1.9.45-.15v.1l-.35.55.5.5.95.5-.6.3.2.65.3.55.45.35-.15.05-1.5.35 1.25 1.2.15.25-1.95-.1.85 1.75-2-.95.25 2-1.4-1.4-.5 1.1-.25.4-.2-.65-.5-1-1.2 1.05.05-.6.2-1.1-1.75.25.25-.4.8-1.05-1.8-.4.4-.35.8-.55-.9-.95.85-.8-.05-1.15 1.3.35-.05-1.8 1.35 1.3.45-1.5q.45.45 1.05.55l.5.05.3-.35.1-.15.4.8 1 .45" fill="#db4d00" transform="translate(17 6.5)"/><path d="m16.75 1.85.45-.15v.15l-.35.55-.35.75 1.2.35-.75.6q.05.2 1.2.75l.05.05-1.85-.25.8 1.65-1.25-.45.2.95-.95-.4.15 1.35-.9-.8-.25 1.4-.5-1.15-.2 2-.7-1.6-.75.6.1-1.45-1.3.4.8-1.4L9.25 6l1.2-.95-.9-.9.85-.8-.05-1.15 1.3.35-.05-1.8 1.35 1.3.45-1.5q.45.45 1.05.55l.5.05.3-.4.1-.1.4.75.1.1.9.35" fill="#ff5900" transform="translate(17 6.5)"/><path d="m11.65.9 1.65 2.05q-.35.95-1.65-2.05m2.35.5.5 2.25q-.5-.05-.65-.45L14 1.4m-1.2 2.5q.15.35-.25.6l-2.8.05L11.5 4q.5-.1-.85-1.45 1.1.45 2.15 1.35" fill="#ffbd80" transform="translate(17 6.5)"/><path d="M12.25 6.15q-.95-.55-2.15-.65 2.3-.9 2.75-.2.15.25-.6.85" fill="#ece9e0" transform="translate(17 6.5)"/><path d="M13.05 4.75Q14 5 14.3 5.4q.25.35-.2.3l-1.05-.95m.65 4.1.45-2.25q.4.2.45.7l-.9 1.55m3.7-2.3q-1-.05-1.3-.4-.35-.3.15-.35.55 0 1.15.75M15.25.9q.45.85.35 1.3l-.4.05.05-1.35" fill="#ffbd80" transform="translate(17 6.5)"/><path d="M4-6.45Q7-6.1 8.9-2.9l3.15 6.05Q14.9 7.6 15.9 14.7q.5 3.25.2 3.1l-3-1.05q-2.15-.95-2.45-3Q9.15 4.2-.5 4.25q-9.75.1-11 10.05-.25 2.05-2.45 3.1-1.7.8-3 .65-.25-.05.5-3.1l.35-1.75q.35-5.35 2.65-9.1 2.2-3.5 7.95-7.15Q.55-6.9 4-6.45" fill="#1a171b" transform="translate(17 6.5)"/><path d="M13.5 15.8q-1.8-.4-2-2.1Q10.3 3.45-.5 3.4q-10.15 0-11.85 10.85-.2 1.4-1.45 2.3-1.2.85-2.3.55l.8-3.7.05-.15q.25-5.05 2.55-8.7 2.1-3.4 7.7-6.95Q.75-6 3.9-5.6 7-5.25 9.5.15l1.85 3.45q2.3 3.7 3.1 9l1.1 3.85q-.1-.25-2.05-.65" fill="#f80" transform="translate(17 6.5)"/><path d="m10.85 2.65 1.4 2.7Q8.3 1.45.6 1.2q-4.8-.15-9.9 2.15l-4.2 2.35q.65-1.7 3.35-4.2L-7.6-.6l2.35-1.05q3.1-1 6.7-.9 5.75.2 8.05 2.6l1.35 2.6" fill="#bd0090" transform="translate(17 6.5)"/><path d="m10.85 2.65.95 1.7Q8.35.8.8.55-3.9.4-8.85 2.4l-4 2L-11 2.35l3.5-1.5Q-3.15-.6 1.15-.5q7.4.2 9.7 3.15" fill="red" transform="translate(17 6.5)"/><path d="M2.1-1q5.2.5 8.2 2.8l.5.75Q6.8-.3 2.05-.5-4.3-.75-11 2.35l1.1-1 3.75-1.4Q-1.6-1.35 2.1-1" fill="#ffbf00" transform="translate(17 6.5)"/><path d="m-12.05 12.85-3.3 1.05.35-3.05 4-1.55q-.85 1.7-1.05 3.55" fill="#ece9e0" transform="translate(17 6.5)"/><path d="m9.9 8.35 1.4.3q1.6.5 2.55 1.2l.9 3.95q-2.15-1-3.4-1.05L9.9 8.35" fill="#ff4ad5" transform="translate(17 6.5)"/><path d="M-10.95 9.2q-2.75.85-4.05 1.65l.25-.95 4.35-1.75-.55 1.05" fill="#725d42" transform="translate(17 6.5)"/><path d="M9.85 8.35q2.8.5 4.1 1.5l.2 1.2L10.5 9.8l-.65-1.45" fill="#e30000" transform="translate(17 6.5)"/><path d="M8.9 7.1q3.4.6 4.7 1.45l.35 1.3-4.2-1.45-.85-1.3" fill="#ffbf00" transform="translate(17 6.5)"/><path d="M-12.15 13.7q-2 .3-3.35 1.1l.15-.9 3.3-1.05-.1.85" fill="#1a171b" transform="translate(17 6.5)"/><path d="m11.25 12.3 3.4 1.1.4 1.35q-2.1-.75-3.5-.9l-.3-1.55" fill="#bd0090" transform="translate(17 6.5)"/><path d="M3.9-5.6q2.55.3 4.15 2.95Q4.7-3.95 1.1-3.2q-3.85 1.55-5.65 7.15-6.45 1.85-7.8 10.3-.2 1.4-1.45 2.3-1.2.85-2.3.55l.8-3.7.05-.15q.25-5.05 2.55-8.7 2.1-3.4 7.7-6.95Q.75-6 3.9-5.6" fill="#ffa845" transform="translate(17 6.5)"/><path d="m-7.6-.6 1.9-.85q2.5-.9 5.45-1.05-2.1 1.35-3.35 4.05-3.55.65-7.1 2.45l-2.8 1.7q.65-1.7 3.35-4.2L-7.6-.6" fill="#ff00c2" transform="translate(17 6.5)"/><path d="m-11 2.35 2.35-1.1q3-1.15 6.1-1.55l-.7 1.15q-3.45.55-6.9 2.1l-2.7 1.45L-11 2.35" fill="#ff5959" transform="translate(17 6.5)"/><path d="m-2.1-.9-.45.65q-4.2.6-8.45 2.6l1.1-1 2.3-.9q2.8-1 5.5-1.35" fill="#ffdd78" transform="translate(17 6.5)"/><path d="m-12.05 12.85-3.3 1.05.35-3.05 4-1.55q-.85 1.7-1.05 3.55" fill="#ff8fe5" transform="translate(17 6.5)"/><path d="M-11.35 10.55q-2.45.45-3.75 1.25l.25-1.5 3.95-1.1-.45 1.35" fill="#ff4c4c" transform="translate(17 6.5)"/><path d="M-12.15 13.7q-2 .3-3.35 1.1l.15-.9 3.3-1.05-.1.85" fill="#ff00c2" transform="translate(17 6.5)"/><path d="M8.25-4.5q3.5 2.4 5.6 6.75l-.2.4q-.25.15-.7-.65-3.65-5.65-7-6.8l-.8-1.25 3.1 1.55" fill="#1a171b" transform="translate(17 6.5)"/><path d="m-10.9 9.2-3.95 1.1.25-1.45 2.1-.65 2.35-.4-.75 1.4" fill="#ffdd78" transform="translate(17 6.5)"/></g></defs></svg>

<?xml version="1.0" encoding="UTF-8" standalone="no"?>
<svg xmlns:xlink="http://www.w3.org/1999/xlink" height="92.9px" width="100.7px" xmlns="http://www.w3.org/2000/svg">
  <g transform="matrix(1.0, 0.0, 0.0, 1.0, 38.65, 49.75)">
    <use height="24.55" transform="matrix(1.0, 0.0, 0.0, 1.0, -17.0, -6.5)" width="37.3" xlink:href="#shape0"/>
  </g>
  <defs>
    <g id="shape0" transform="matrix(1.0, 0.0, 0.0, 1.0, 17.0, 6.5)">
      <path d="M18.05 0.65 Q18.05 1.95 17.65 2.65 L19.65 2.7 18.35 4.3 Q18.55 5.0 20.3 5.1 L18.35 6.05 19.6 7.8 17.6 7.7 Q18.45 9.5 18.25 9.65 18.05 9.8 16.25 8.85 16.5 10.65 16.1 11.15 L14.55 9.4 Q13.85 10.95 12.95 11.35 L12.8 9.15 11.0 10.45 11.25 8.3 9.4 8.55 10.2 6.8 8.5 6.45 9.85 5.1 8.7 3.9 Q10.05 3.95 10.25 3.35 10.5 2.8 9.4 1.9 L11.35 1.95 Q11.35 0.65 11.0 0.05 11.95 0.05 12.9 1.05 L13.4 -0.75 13.75 0.05 Q14.15 0.85 14.65 0.85 L15.95 -0.15 16.35 1.45 Q16.8 1.95 18.05 0.65" fill="#1a171b" fill-rule="evenodd" stroke="none"/>
      <path d="M16.75 1.9 L17.2 1.75 17.2 1.85 16.85 2.4 17.35 2.9 18.3 3.4 17.7 3.7 17.9 4.35 18.2 4.9 18.65 5.25 18.5 5.3 17.0 5.65 18.25 6.85 18.4 7.1 16.45 7.0 17.3 8.75 15.3 7.8 15.55 9.8 14.15 8.4 13.65 9.5 13.4 9.9 13.2 9.25 12.7 8.25 11.5 9.3 11.55 8.7 11.75 7.6 10.0 7.85 10.25 7.45 11.05 6.4 9.25 6.0 9.65 5.65 10.45 5.1 9.55 4.15 10.4 3.35 10.35 2.2 11.65 2.55 11.6 0.75 12.95 2.05 13.4 0.55 Q13.85 1.0 14.45 1.1 L14.95 1.15 15.25 0.8 15.35 0.65 15.75 1.45 16.75 1.9" fill="#db4d00" fill-rule="evenodd" stroke="none"/>
      <path d="M16.75 1.85 L17.2 1.7 17.2 1.85 16.85 2.4 16.5 3.15 17.7 3.5 16.95 4.1 Q17.0 4.3 18.15 4.85 L18.2 4.9 16.35 4.65 17.15 6.3 15.9 5.85 16.1 6.8 15.15 6.4 15.3 7.75 14.4 6.95 14.15 8.35 13.65 7.2 13.45 9.2 12.75 7.6 12.0 8.2 12.1 6.75 10.8 7.15 11.6 5.75 9.25 6.0 10.45 5.05 9.55 4.15 10.4 3.35 10.35 2.2 11.65 2.55 11.6 0.75 12.95 2.05 13.4 0.55 Q13.85 1.0 14.45 1.1 L14.95 1.15 15.25 0.75 15.35 0.65 15.75 1.4 15.85 1.5 16.75 1.85" fill="#ff5900" fill-rule="evenodd" stroke="none"/>
      <path d="M11.65 0.9 L13.3 2.95 Q12.95 3.9 11.65 0.9" fill="#ffbd80" fill-rule="evenodd" stroke="none"/>
      <path d="M14.0 1.4 L14.5 3.65 Q14.0 3.6 13.85 3.2 L14.0 1.4" fill="#ffbd80" fill-rule="evenodd" stroke="none"/>
      <path d="M12.8 3.9 Q12.95 4.25 12.55 4.5 L9.75 4.55 11.5 4.0 Q12.0 3.9 10.65 2.55 11.75 3.0 12.8 3.9" fill="#ffbd80" fill-rule="evenodd" stroke="none"/>
      <path d="M12.25 6.15 Q11.3 5.6 10.1 5.5 12.4 4.6 12.85 5.3 13.0 5.55 12.25 6.15" fill="#ece9e0" fill-rule="evenodd" stroke="none"/>
      <path d="M13.05 4.75 Q14.0 5.0 14.3 5.4 14.55 5.75 14.1 5.7 L13.05 4.75" fill="#ffbd80" fill-rule="evenodd" stroke="none"/>
      <path d="M13.7 8.85 L14.15 6.6 Q14.55 6.8 14.6 7.3 L13.7 8.85" fill="#ffbd80" fill-rule="evenodd" stroke="none"/>
      <path d="M17.4 6.55 Q16.4 6.5 16.1 6.15 15.75 5.85 16.25 5.8 16.8 5.8 17.4 6.55" fill="#ffbd80" fill-rule="evenodd" stroke="none"/>
      <path d="M15.25 0.9 Q15.7 1.75 15.6 2.2 L15.2 2.25 15.25 0.9" fill="#ffbd80" fill-rule="evenodd" stroke="none"/>
      <path d="M4.0 -6.45 Q7.0 -6.1 8.9 -2.9 L12.05 3.15 Q14.9 7.6 15.9 14.7 16.4 17.95 16.1 17.8 L13.1 16.75 Q10.95 15.8 10.65 13.75 9.15 4.2 -0.5 4.25 -10.25 4.35 -11.5 14.3 -11.75 16.35 -13.95 17.4 -15.65 18.2 -16.95 18.05 -17.2 18.0 -16.45 14.95 L-16.1 13.2 Q-15.75 7.85 -13.45 4.1 -11.25 0.6 -5.5 -3.05 0.55 -6.9 4.0 -6.45" fill="#1a171b" fill-rule="evenodd" stroke="none"/>
      <path d="M13.5 15.8 Q11.7 15.4 11.5 13.7 10.3 3.45 -0.5 3.4 -10.65 3.4 -12.35 14.25 -12.55 15.65 -13.8 16.55 -15.0 17.4 -16.1 17.1 L-15.3 13.4 -15.25 13.25 Q-15.0 8.2 -12.7 4.55 -10.6 1.15 -5.0 -2.4 0.75 -6.0 3.9 -5.6 7.0 -5.25 9.5 0.15 L11.35 3.6 Q13.65 7.3 14.45 12.6 L15.55 16.45 Q15.45 16.2 13.5 15.8" fill="#ff8800" fill-rule="evenodd" stroke="none"/>
      <path d="M10.85 2.65 L12.25 5.35 Q8.3 1.45 0.6 1.2 -4.2 1.05 -9.3 3.35 L-13.5 5.7 Q-12.85 4.0 -10.15 1.5 L-7.6 -0.6 -5.25 -1.65 Q-2.15 -2.65 1.45 -2.55 7.2 -2.35 9.5 0.05 L10.85 2.65" fill="#bd0090" fill-rule="evenodd" stroke="none"/>
      <path d="M10.85 2.65 L11.8 4.35 Q8.35 0.8 0.8 0.55 -3.9 0.4 -8.85 2.4 L-12.85 4.4 -11.0 2.35 -7.5 0.85 Q-3.15 -0.6 1.15 -0.5 8.55 -0.3 10.85 2.65" fill="#ff0000" fill-rule="evenodd" stroke="none"/>
      <path d="M2.1 -1.0 Q7.3 -0.5 10.3 1.8 L10.8 2.55 Q6.8 -0.3 2.05 -0.5 -4.3 -0.75 -11.0 2.35 L-9.9 1.35 -6.15 -0.05 Q-1.6 -1.35 2.1 -1.0" fill="#ffbf00" fill-rule="evenodd" stroke="none"/>
      <path d="M-12.05 12.85 L-15.35 13.9 -15.0 10.85 -11.0 9.3 Q-11.85 11.0 -12.05 12.85" fill="#ece9e0" fill-rule="evenodd" stroke="none"/>
      <path d="M9.9 8.35 L11.3 8.65 Q12.9 9.15 13.85 9.85 L14.75 13.8 Q12.6 12.8 11.35 12.75 L9.9 8.35" fill="#ff4ad5" fill-rule="evenodd" stroke="none"/>
      <path d="M-10.95 9.2 Q-13.7 10.05 -15.0 10.85 L-14.75 9.9 -10.4 8.15 -10.95 9.2" fill="#725d42" fill-rule="evenodd" stroke="none"/>
      <path d="M9.85 8.35 Q12.65 8.85 13.95 9.85 L14.15 11.05 10.5 9.8 9.85 8.35" fill="#e30000" fill-rule="evenodd" stroke="none"/>
      <path d="M8.9 7.1 Q12.3 7.7 13.6 8.55 L13.95 9.85 9.75 8.4 8.9 7.1" fill="#ffbf00" fill-rule="evenodd" stroke="none"/>
      <path d="M-12.15 13.7 Q-14.15 14.0 -15.5 14.8 L-15.35 13.9 -12.05 12.85 -12.15 13.7" fill="#1a171b" fill-rule="evenodd" stroke="none"/>
      <path d="M11.25 12.3 L14.65 13.4 15.05 14.75 Q12.95 14.0 11.55 13.85 L11.25 12.3" fill="#bd0090" fill-rule="evenodd" stroke="none"/>
      <path d="M3.9 -5.6 Q6.45 -5.3 8.05 -2.65 4.7 -3.95 1.1 -3.2 -2.75 -1.65 -4.55 3.95 -11.0 5.8 -12.35 14.25 -12.55 15.65 -13.8 16.55 -15.0 17.4 -16.1 17.1 L-15.3 13.4 -15.25 13.25 Q-15.0 8.2 -12.7 4.55 -10.6 1.15 -5.0 -2.4 0.75 -6.0 3.9 -5.6" fill="#ffa845" fill-rule="evenodd" stroke="none"/>
      <path d="M-7.6 -0.6 L-5.7 -1.45 Q-3.2 -2.35 -0.25 -2.5 -2.35 -1.15 -3.6 1.55 -7.15 2.2 -10.7 4.0 L-13.5 5.7 Q-12.85 4.0 -10.15 1.5 L-7.6 -0.6" fill="#ff00c2" fill-rule="evenodd" stroke="none"/>
      <path d="M-11.0 2.35 L-8.65 1.25 Q-5.65 0.1 -2.55 -0.3 L-3.25 0.85 Q-6.7 1.4 -10.15 2.95 L-12.85 4.4 -11.0 2.35" fill="#ff5959" fill-rule="evenodd" stroke="none"/>
      <path d="M-2.1 -0.9 L-2.55 -0.25 Q-6.75 0.35 -11.0 2.35 L-9.9 1.35 -7.6 0.45 Q-4.8 -0.55 -2.1 -0.9" fill="#ffdd78" fill-rule="evenodd" stroke="none"/>
      <path d="M-12.05 12.85 L-15.35 13.9 -15.0 10.85 -11.0 9.3 Q-11.85 11.0 -12.05 12.85" fill="#ff8fe5" fill-rule="evenodd" stroke="none"/>
      <path d="M-11.35 10.55 Q-13.8 11.0 -15.1 11.8 L-14.85 10.3 -10.9 9.2 -11.35 10.55" fill="#ff4c4c" fill-rule="evenodd" stroke="none"/>
      <path d="M-12.15 13.7 Q-14.15 14.0 -15.5 14.8 L-15.35 13.9 -12.05 12.85 -12.15 13.7" fill="#ff00c2" fill-rule="evenodd" stroke="none"/>
      <path d="M8.25 -4.5 Q11.75 -2.1 13.85 2.25 L13.65 2.65 Q13.4 2.8 12.95 2.0 9.3 -3.65 5.95 -4.8 L5.15 -6.05 8.25 -4.5" fill="#1a171b" fill-rule="evenodd" stroke="none"/>
      <path d="M-10.9 9.2 L-14.85 10.3 -14.6 8.85 -12.5 8.2 -10.15 7.8 -10.9 9.2" fill="#ffdd78" fill-rule="evenodd" stroke="none"/>
    </g>
  </defs>
</svg>
